epam-assets/icon-sources/18/internal-logo/exit.svg

<svg width="18" height="18" viewBox="0 0 18 18" fill="none" xmlns="http://www.w3.org/2000/svg">
<g id="18/Internal-logo/exit">
<path id="icon" fill-rule="evenodd" clip-rule="evenodd" d="M11.2937 7.0366C11.2937 10.0103 10.0852 12.5413 9.0001 12.5413C7.91505 12.5413 6.70646 10.0103 6.70646 7.0366C6.70646 4.06294 7.91505 1.50122 9.0001 1.50122C10.0852 1.50122 11.2937 4.06294 11.2937 7.0366ZM5.7891 7.03663C5.7891 9.07147 6.31323 11.0034 7.12783 12.2077C5.01081 11.4408 3.49536 9.41828 3.49536 7.03663C3.49536 4.65488 5.01081 2.6019 7.12783 1.83495C6.31323 3.03929 5.7891 5.0017 5.7891 7.03663ZM10.8724 12.2077C12.9894 11.4408 14.5048 9.41828 14.5048 7.03663C14.5048 4.65488 12.9894 2.6019 10.8724 1.83495C11.687 3.03929 12.2111 5.0017 12.2111 7.03663C12.2111 9.07147 11.687 11.0034 10.8724 12.2077ZM10.3576 14.1139L11.1389 12.8949C11.737 12.6417 12.2776 12.2814 12.746 11.8446L11.2916 14.1139H11.3588C11.5762 14.1139 11.752 14.2897 11.752 14.507C11.752 14.7242 11.5762 14.9001 11.3588 14.9001H10.9657V15.3194C10.9657 15.9697 10.4367 16.4988 9.78636 16.4988H8.21379C7.56357 16.4988 7.03441 15.9697 7.03441 15.3194V14.9001H6.64132C6.42405 14.9001 6.24822 14.7242 6.24822 14.507C6.24822 14.2897 6.42405 14.1139 6.64132 14.1139H6.70861L5.25414 11.8446C5.72252 12.2814 6.26312 12.6417 6.86125 12.8949L7.6426 14.1139H8.60698V13.3077C8.62184 13.3087 8.6367 13.3098 8.65156 13.3109C8.76703 13.3192 8.88259 13.3276 9.00008 13.3276C9.11753 13.3276 9.2329 13.3192 9.34831 13.3109C9.36329 13.3098 9.37828 13.3087 9.39327 13.3077V14.1139H10.3576Z" fill="#6C6F80"/>
</g>
</svg>

<svg xmlns="http://www.w3.org/2000/svg" width="18" height="18" fill="none" viewBox="0 0 18 18">
  <path fill="#6C6F80" fill-rule="evenodd" d="M11.294 7.037c0 2.973-1.209 5.504-2.294 5.504s-2.294-2.53-2.294-5.504C6.706 4.063 7.915 1.5 9 1.5s2.294 2.562 2.294 5.536Zm-5.505 0c0 2.034.524 3.966 1.339 5.17a5.502 5.502 0 0 1-3.633-5.17 5.542 5.542 0 0 1 3.633-5.202c-.815 1.204-1.339 3.167-1.339 5.202Zm5.083 5.17a5.502 5.502 0 0 0 3.633-5.17 5.542 5.542 0 0 0-3.633-5.202c.815 1.204 1.34 3.167 1.34 5.202 0 2.034-.525 3.966-1.34 5.17Zm-.514 1.907.78-1.22a5.511 5.511 0 0 0 1.608-1.05l-1.454 2.27h.067a.393.393 0 1 1 0 .786h-.393v.42c0 .65-.53 1.179-1.18 1.179H8.214c-.65 0-1.18-.53-1.18-1.18V14.9h-.393a.393.393 0 1 1 0-.786h.068l-1.455-2.27a5.51 5.51 0 0 0 1.607 1.05l.782 1.22h.964v-.806l.045.003c.115.008.23.017.348.017.118 0 .233-.009.348-.017l.045-.003v.806h.965Z" clip-rule="evenodd"/>
</svg>
